X:1
T:French Suite VI Polonaise
T:BWV 817
T:J. S. Bach
%%score { 1 | 2 }
L:1/8
M:3/4
K:E
V:1 treble nm="Harp"
V:2 bass 
V:1
 g/a/b a2 g2 | fd e/4d/4e3/2- e2 | B=d dc cB | B/A/G/F/ G/4F/4G3/2 E2 | g/a/b a2 g2 | ^Ac f4 | %6
 FG/^A/ Bc/d/ ed/c/ | f/e/d/c/ B4 | g/a/b a2 g2 | fd e/4d/4e3/2- e2 | B=d dc cB | %11
 B/A/G/F/ G/4F/4G3/2 E2 | g/a/b a2 g2 | ^Ac f4 | FG/^A/ Bc/d/ ed/c/ | f/e/d/c/ B4 | d/e/f e2 d2 | %17
 af g/4f/4g3/2- g2 | ^Bf fe ed | d/c/^B/c/ d2 G2 | =d/c/^B/c/ d/c/B/c/ b2 | %21
 =d/c/^B/c/ d/c/B/c/ a2 | G^A/^B/ cd/e/ dc/B/ | c/4^B/4c3/2 c4 | %24
 G/A/B B/4A/4B/4A/4B/4A/4B/4A/4 G2 | =dB c4 | ^AB/c/ BA GF | e/d/c/e/ d2 B2- | %28
 B/c/d/e/ f/e/d/e/ A2- | A/c/d/e/ f/e/d/e/ G2- | G^A/B/ c/B/A/B/ Fd | d/e/f/d/{d} e4 | %32
 d/e/f e2 d2 | af g/4f/4g3/2- g2 | ^Bf fe ed | d/c/^B/c/ d2 G2 | =d/c/^B/c/ d/c/B/c/ b2 | %37
 =d/c/^B/c/ d/c/B/c/ a2 | G^A/^B/ cd/e/ dc/B/ | c/4^B/4c3/2 c4 | %40
 G/A/B B/4A/4B/4A/4B/4A/4B/4A/4 G2 | =dB c4 | ^AB/c/ BA GF | e/d/c/e/ d2 B2- | %44
 B/c/d/e/ f/e/d/e/ A2- | A/c/d/e/ f/e/d/e/ G2- | G^A/B/ c/B/A/B/ Fd | %47
 d/e/f/d/{!fermata!d} !fermata!e4 |] %48
V:2
 ED CE B,E | A,B, G,B, F,B, | G,E A,E G,E | F,D EE, G,B, | ED CE B,E | CE B,E ^A,E | %6
 B,D D,B, F,^A, | B,F, D,F, B,,2 | ED CE B,E | A,B, G,B, F,B, | G,E A,E G,E | F,D EE, G,B, | %12
 ED CE B,E | CE B,E ^A,E | B,D D,B, F,^A, | B,F, D,F, B,,2 | B,A, G,B, F,A, | ^B,C DF, CE, | %18
 D,C, ^B,,G, C,G, | G,,A, G,A,/G,/ F,G,/F,/ | ^E,G, C,G, E,G, | F,A, E,G, D,F, | E,D, E,F, G,G,, | %23
 C,G,, C,,G,, C,D, | E,B,, E,,E, D,E, | A,,A, E,C, E,=G, | F,C, F,,F, ^E,F, | B,,B, F,D, F,A, | %28
 G,B,, A,C, B,D, | CE, DF, ED | CB, ^A,F, B,B,, | E,B,, E,,B,, E,2 | B,A, G,B, F,A, | %33
 ^B,C DF, CE, | D,C, ^B,,G, C,G, | G,,A, G,A,/G,/ F,G,/F,/ | ^E,G, C,G, E,G, | F,A, E,G, D,F, | %38
 E,D, E,F, G,G,, | C,G,, C,,G,, C,D, | E,B,, E,,E, D,E, | A,,A, E,C, E,=G, | F,C, F,,F, ^E,F, | %43
 B,,B, F,D, F,A, | G,B,, A,C, B,D, | CE, DF, ED | CB, ^A,F, B,B,, | E,B,, E,,B,, !fermata!E,2 |] %48

